X:1
T:O Zion, Haste
T:O Zion, Haste
T:James Walch, 1875
T:Mary Ann Faulker Thomson, 1868, 1871
T:Public Domain Courtesy of the Cyber Hymnal™
C:James Walch, 1875
Z:Public Domain
Z:Courtesy of the Cyber Hymnal™
%%score ( 1 2 ) ( 3 4 )
L:1/8
Q:1/4=130
M:4/4
K:Bb
V:1 treble 
V:2 treble 
V:3 bass 
V:4 bass 
V:1
 [DB]4 [B,D]2 [B,E]2 | [B,F]6 [EF]2 | [DF]2 [FB]2 [Fd]2 [Ec]2 | [Ec]4 [DB]4 | [GB]4 [FA]2 [EG]2 | %5
w: 1.~O Zi- on,|haste, thy|mis- sion high ful-|fill- ing,|To tell to|
w: 2.~Be- hold how|ma- ny|thou- sands still are|ly- ing|Bound in the|
w: 3.~Pro- claim to|ev- ery|peo- ple, tongue, and|na- tion|That God, in|
w: 4.~Give of thy|sons to|bear the mes- sage|glor- ious;|Give of thy|
 [DF]6 F2 | A2 (z [CF]2) [CE]2 x | [B,D]8 | [B,D]4 [CE]3 [CE] | [DF]6 [DF]2 | %10
w: all the|world * that|God|is light, That|He who|
w: dark- some|pri- * son|house|of sin, With|none to|
w: Whom they|live * and|move,|is love; Tell|how He|
w: wealth to|speed * them|on|their way; Pour|out thy|
 [D^F]2 [DG]2 [FB]2 [FA]2 | [^FA]4 G4 | [=EG]4 [FA]2 [EB]2 | [Fc]4 F4 | [DA]2 [DG]2 [CF]2 [C=E]2 | %15
w: made all na- tions|is not|will- ing One|soul should|per- ish, lost in|
w: tell them of the|Sav- ior’s|dy- ing, Or|of the|life He died for|
w: stooped to save His|lost cre-|a- tion, And|died on|earth that we might|
w: soul for them in|prayer vic-|tor- ious; O|Zio- n,|haste to bring the|
 [CF]8 ||"^Refrain" [EA]4 [EG]2 [EF]2 | [DB]4 F4 | [EA]4 [EG]2 [EF]2 | [Dd]8 | [Fd]4 [Fe]2 [Fd]2 | %21
w: shades|of night. *|||||
w: them|to win. Pub-|lish glad|tid- ings, tid-|ings|of peace; Tid-|
w: live|a- bove. *|||||
w: bright-|er day. *|||||
 (d2 c2) [GB]2 [EG]2 | [DF]2 [FB]2 [Ec]3 [DB] | [DB]8 |] %24
w: |||
w: ings * of Je-|sus, re- demp- tion|and|
w: |||
w: |||
V:2
 x8 | x8 | x8 | x8 | x8 | x8 | E3 (G2 D) x2 | x8 | x8 | x8 | x8 | x8 | x8 | x8 | x8 | x8 || x8 | %17
 x8 | x8 | x8 | x8 | E4 x4 | x8 | x8 |] %24
V:3
 [B,,F,]4 [B,,F,]2 [C,F,]2 | [D,F,]6 [C,A,]2 | [B,,B,]2 [D,B,]2 [F,B,]2 [F,A,]2 | [F,A,]4 [G,B,]4 | %4
 [E,B,]4 [E,B,]2 [E,B,]2 | [B,,B,]6 [D,B,]2 | [F,C]2 [F,B,]2 [F,,A,]2 [F,,A,]2 | [B,,F,]8 | %8
 [B,,B,]4 [B,,A,]3 [B,,G,] | [B,,F,]6 [B,,B,]2 | [D,A,]2 [D,B,]2 [D,D]2 [D,C]2 | [D,C]4 [G,,B,]4 | %12
 [C,B,]4 [C,C]2 [B,,C]2 | [A,,C]4 [D,A,]4 | [B,,C]2 [B,,B,]2 [C,A,]2 [C,G,]2 | [F,,A,]8 || %16
 [F,C]4 [F,B,]2 [F,A,]2 | [B,,B,]4 [D,B,]4 | [F,C]4 [F,B,]2 [F,A,]2 | B,8 | %20
 [G,=B,]4 [G,B,]2 [G,B,]2 | [C,C]4 [E,G,]2 [E,B,]2 | [F,B,]2 [F,D]2 [F,,A,]3 [B,,B,] | [B,,B,]8 |] %24
V:4
 x8 | x8 | x8 | x8 | x8 | x8 | x8 | x8 | x8 | x8 | x8 | x8 | x8 | x8 | x8 | x8 || x8 | x8 | x8 | %19
 (B,,4 _A,4) | x8 | x8 | x8 | x8 |] %24

